src/icon/animals/deer.svg

<svg enable-background="new 0 0 24 24" viewBox="0 0 24 24" xmlns="http://www.w3.org/2000/svg"><path d="m22 7v-5h-2v3h-2.4l-.6.6-2-2v-1.6h-2v2.4l2.6 2.6-3.6 3.6-3.6-3.6 2.6-2.6v-2.4h-2v1.6l-2 2-.6-.6h-2.4v-3h-2v5h3.6l4 4h-.6c-2.1-2.2-5-1-5-1 0 3.6 3 4 3 4v1.4c0 .4.1.7.3 1l3.1 4.7c.3.5.9.8 1.6.8.6 0 1.2-.3 1.6-.8l3.1-4.7c.2-.3.3-.7.3-1v-1.4s3-.4 3-4c0 0-2.9-1.2-5 1h-.6l4-4zm-13 9c-.6 0-1-.4-1-1s.4-1 1-1 1 .4 1 1-.5 1-1 1zm7-1c0 .6-.4 1-1 1s-1-.4-1-1 .4-1 1-1 1 .5 1 1z"/></svg>

<?xml version="1.0" encoding="utf-8"?>
<!-- Generator: Adobe Illustrator 18.0.0, SVG Export Plug-In . SVG Version: 6.00 Build 0)  -->
<!DOCTYPE svg PUBLIC "-//W3C//DTD SVG 1.1//EN" "http://www.w3.org/Graphics/SVG/1.1/DTD/svg11.dtd">
<svg version="1.1" id="Layer_1" xmlns="http://www.w3.org/2000/svg" xmlns:xlink="http://www.w3.org/1999/xlink" x="0px" y="0px"
	 viewBox="0 0 24 24" enable-background="new 0 0 24 24" xml:space="preserve">
<path d="M22,7V2h-2v3h-2.4L17,5.6l-2-2V2h-2v2.4L15.6,7L12,10.6L8.4,7L11,4.4V2H9v1.6l-2,2L6.4,5H4V2H2v5h3.6l4,4H9
	c-2.1-2.2-5-1-5-1c0,3.6,3,4,3,4v1.4c0,0.4,0.1,0.7,0.3,1l3.1,4.7c0.3,0.5,0.9,0.8,1.6,0.8c0.6,0,1.2-0.3,1.6-0.8l3.1-4.7
	c0.2-0.3,0.3-0.7,0.3-1V14c0,0,3-0.4,3-4c0,0-2.9-1.2-5,1h-0.6l4-4H22z M9,16c-0.6,0-1-0.4-1-1c0-0.6,0.4-1,1-1c0.6,0,1,0.4,1,1
	C10,15.6,9.5,16,9,16z M16,15c0,0.6-0.4,1-1,1c-0.6,0-1-0.4-1-1c0-0.6,0.4-1,1-1C15.6,14,16,14.5,16,15z"/>
</svg>
